/* XPM */
static char * door_close_xpm[] = {
"64 64 17 1",
" 	c #C09473",
".	c #7A4841",
"+	c #4D2B32",
"@	c #341C27",
"#	c #394A50",
"$	c #577277",
"%	c #819796",
"&	c #A8B5B2",
"*	c #D7B594",
"=	c #E7D5B3",
"-	c #19332D",
";	c #AD7757",
">	c #10141F",
",	c #202E37",
"'	c #241527",
")	c #151D28",
"!	c #090A14",
" .+@#$##$$$%&&& **=***=**=#-----------==*==*=*&*****  ****&* &&*",
".++@#$$#+$+#$$;;;$;; *####%&&&&&&&&&&&####**;;;;  ;;.;;;;;;;;$$;",
"+@>##$#.#+,,+##..#%###&&&&&&%%%%%%%%&&&&&&###%...##.........##.#",
"'>+#######+'@@@$$$$&&&%%%%%%&%%%%%%&%%%%%%&&&$$$$@++@@+++@@@@+@@",
">#...##.####,$$#&&&&&%%%%%%%&%%%%%%&%%%%%%%%&&&%$$#,>>>>>>>>>>>>",
"@++########%%%&&%%%%&&%%%%%$$######$$%%%%%&&%%%%%&%$$>>>>>>>>>>>",
">'',,'''@#%$%&&%%%%%%%&####+@@+++@+@+++##&%%%%%%%&&%$$,')')'''>'",
"###..#$#%%%%&%%&%%%%$#$+@@@++++++++++@@@+$$$%%%%&&%%%%%$+#######",
"'$.#$$$&%%%%%%%%&$##+@@++++.;.;.;;...++++@@+##$&%%%%%%%%$.#+@$#.",
"'$.$$$%%%%%%%%%%%#@@+++..;.. ;;;;;;;..;;.+++@@#$%%%%%%&%%%.$$$##",
"'#$%$%>&&&%%%%$#@++....;;;.. ;;;;;;;..  ;...+++@$$%%%%&&&).#+$#.",
"@$$$%&$%&&%%%$#@+.;.;;;;;;.. ;;;;;;;.. ;;;;;...+@#$%%&&%%$;%%$#.",
"@###$#&%%%&%$@@++; ;;;;;;;.. ;;;;;;;.. ;;;;;; ;++@!$%&%%%&$$$$#$",
"+$#$$$&%%%%$!+..+; ;;;;;;;.. ;;;;;;;.. ;;;;;;;;+..+!$%%%%&$$$.#.",
"@$%!%&%%%%$#@+.;+; ;;;;;;;.. ;;;;;;;.. ;;;;;;;;+ ;+'#%%%%%&%,.#.",
"@%%#%&%%%%)@+..;+; ;;;;;;;.. ;;;;;;;.. ;;;;;;;.+ ;..@>%%%%&%#$..",
"@$-&%%&&&$@@+;;;+; ;;;;;;;.. ;;;;;;;.. ;;;;;;;.+ ;;+@'$&&&%%&,$.",
"@$-&%%%%$!++.;;;+; ;;;;;;;.. ;;;;;;;.. ;;;;;;;.+ ;;.++!$%%%%&-$.",
"@$-&%%%%$!+.;;;;+; ;;;;;;;.. ;;;;;;;.. ;;;;;;;;+ ;;;.+!$%%%%&#$.",
"@$-&%%%%$!+.;;;;+; ;;;;;;;.. ;;;;;;;.. ;;;;;;;;+ ;;;.+!$%%%%&-$%",
">%&%%%%#'+..;;;;+; ;;;;;;;.. ;;;;;;;.. ;;;;;;;;+ ;;;.++',%%%%&%>",
"!%&&&&&#'+;;;;;;+; ;;;;;;;.. ;;;;;;;.. ;;;;;;;;+ ;;;;;+@#&&&&&%!",
"!%&%%%%,@+  ;;;;+; ;;;;;;;.. ;;;;;;;.. ;;;;;;;;+ ;;;;;+@,%%%%&%!",
"!%&%%%%+@+ ;;;;;+; ;;;;;;;.. ;;;;;;;.. ;;;;;;;;+ ;;;;;+@@%%%%&%!",
"!%&%%%%+++......+.........+..........+........++.......++%%%%&%!",
"!%&%%$.; ;  ; ;;; ;;;   ; ;; ;;  ;; ;; ; ;  ;  ;;;;  ;; ;.$%%&%!",
"!%&&&&+  ;;;;  ;;;;;;; ;;;;;;;;;  ;;;;;;;;  ;;;;;;; ;;;;;+&&&&%!",
"!$&%%%+; ;;;;;;;;;;;;;;;;;;;;;;;;;;;;;;;;;;;;;;;;;;;;;;;;+%%%&%!",
"!%&%%%$;.................................................$%%%&%!",
"!%&%%%%+++++.++++++++++++.+++++++++++++++++++++++++++++++%%%%&%!",
"!%&%%%%,@+;;......;;.....;..;;.....;..;;.......+;;.;..+@-%%%%&%!",
"!%&%&&&#'+ ;;;;;+; ;;;;;;;.. ;;;;;;;.. ;;;;;;;.+ ;;;;;+'#&&&&&%!",
"!%&&&&&#@+ ;;;;;+; ;;;;;;;.. ;;;;;;;.. ;;;;;;;.+ ;;;;;+@#&&&&&%!",
"!%&%%%%,@+;;;.;;+; ;;;;;;;.. ;;;;;;;.. ;;;;;;;.+ ;;;;;+@,%%%%&%!",
"!%&%%%%,@+ ;....+; ;;;;;;;.. ;;;;;;;.. ;;;;;;;.+ ;;;;;+@,%%%%&%!",
"!%&%%%%,'+ ;+ ;++; ;;;;;;;.. ;;;;;;;.. ;;;;;;;.+  ;;;;+@,%%%%&%!",
"!%&%%%%#@+ ;. ;.+; ;;;;;;;.. ;;;;;;;.. ;;;;;;;.+  ;;;;+@,%%%%&%!",
"!%&&&&&#@+  ;+.;+; ;;;;;;;.. ;;;;;;;.. ;;;;;;;.+ ;;;;;+@#&&&&&%!",
"!%&%%%%,@+ ;;+.;+; ;;;;;;;.. ;;;;;;;.. ;;;;;;;.+ ;;;;;+@,%%%%&%!",
"!%&%%%%#@+  ;+.;+; ;;;;;;;.. ;;;;;;;.. ;;;;;;;.+ ;;;;;+@,%%%%&%!",
"!%&%%%%,@+ ;;+.;+; ;;;;;;;.. ;;;;;;;.. ;;;;;;;;+ ;;;;;+@,%%%%&%!",
"!%&%%%%#@+  ;+.;+; ;;;;;;;.. ;;;;;;;.. ;;;;;;;;+ ;;;;;+@,%%%%&%!",
"!%&&&&&#@+ ;;..;+; ;;;;;;;.. ;;;;;;;.. ;;;;;;;;+ ;;;;;+@#&&&&&%!",
"!%&%%%%,@+ ;+ ;.+; ;;;;;;;.. ;;;;;;;.. ;;;;;;;;+ ;;;;;+@,%%%%&%!",
"!%&%%%%#@+ ;+ ;++; ;;;;;;;.. ;;;;;;;.. ;;;;;;;;+ ;;;;;+@,%%%%&%!",
"!%&$%%%,@+ ;;..;+; ;;;;;;;.. ;;;;;;;.. ;;;;;;;;+ ;;;;;+@,%%%%&%!",
"!%&%%%%,@+  ;;;;+; ;;;;;;;.. ;;;;;;;.. ;;;;;;;.+ ;;;;;+@,%%%%&%!",
"!%&&&&&#@+ ;;;;;+; ;;;;;;;.. ;;;;;;;.. ;;;;;;;.+ ;;;;;+@#&&&&&%!",
"!%&%%%%#@+ ;;;;;+; ;;;;;;;.. ;;;;;;;.. ;;;;;;;;+ ;;;;;+@-%%%%&%!",
"!%&%%%%,@.;;;;;;+; ;;;;;;;.. ;;;;;;;..  ;;;;;;;. ;;;;;+@-%%%%&%!",
"!%&%%%%+@+......+.;.........;........+;........+;.....+++%%%%&%!",
"!%&%%%.;;;;;;;;;;;;;;;;;;;;;;;;;;;;;;;;;;;;;;;;;;;;;;;;;;.%%%&%!",
"!%&&&%+; ;;;;  ;; ;;;  ;;;;;;;;;  ;;;;;;;;  ;;;;; ;  ;; ;+%&&&%!",
"!%&&&&+; ;;;; ;;;;;;;;;;;;;;;;;;;;;;;;;;;;;;;;;;;;;;;;;;;+%&&&%!",
"!%&%%%.;;..........;..;................;..;...;....;......%%%&%!",
"!%&%%%%++++++++++++++++++++++++++++++++++++++++++++++++++%%%%&%!",
"!%&%%%%-@+;.....+.........+.;........+.........+......+@-%%%%&%!",
"!%&%%%%#@+ ;;;;;+; ;;;;;;;.. ;;;;;;;.. ;;;;;;;.. ;;;;;.@,%%%%&%!",
"!%&&&&&#@+ ;;;;;+; ;;;;;;;.. ;;;;;;;.. ;;;;;;;.+ ;;;;;+'#&&&&&%!",
"!%&%%%%,@+ ;;;;;+; ;;;;;;;.. ;;;;;;;.. ;;;;;;;;+ ;;;;;+@,%%%%&%!",
"!%&%%%%,@+ ;;;;;+; ;;;;;;;.. ;;;;;;;.. ;;;;;;;.+ ;;;;;+@,%%%%&%!",
"!%&%%%%#'+  ;;;;+; ;;;;;;;.. ;;;;;;;.. ;;;;;;;.+ ;;;;;+@,%%%%&%!",
"!%&%$%%,'+;;;;;;+; ;;;;;;;+. ;;;;;;;.. ;;;;;;;.+ ;;;;;+'@%%$%&%!",
"!!->->)!!!.....+@+....++..@@..+....+@@.....++++@.+..++!!!)>))-!!"};
