/* XPM */
static char * door_close_xpm[] = {
"64 64 9 1",
" 	c None",
".	c #DEA44D",
"+	c #D4933E",
"@	c #A1612A",
"#	c #C27E2B",
"$	c #825121",
"%	c #633E0E",
"&	c #B8BFBF",
"*	c #7E8F8F",
"..++++........++........++....@@@@....++........++........++++..",
"..++++........++........++....@@@@....++........++........++++..",
"++############################$$$$############################++",
"++############################$$$$############################++",
"..##%%$$$$$$$$##%%$$$$$$$$####$$$$####$$$$$$$$%%##$$$$$$$$%%##..",
"..##%%$$$$$$$$##%%$$$$$$$$####$$$$####$$$$$$$$%%##$$$$$$$$%%##..",
"..##$$        ++$$        ++##%%%%##++        $$++        $$##..",
"..##$$        ++$$        ++##%%%%##++        $$++        $$##..",
"&&##$$        ..$$        ..##@@@@##..        $$..        $$##&&",
"&&##$$        ..$$        ..##@@@@##..        $$..        $$##&&",
"**##$$        ++$$        ++##$$$$##++        $$++        $$##**",
"**##$$        ++$$        ++##$$$$##++        $$++        $$##**",
"++##@@++....++++@@++....++++##$$$$##++++....++@@++++....++@@##++",
"++##@@++....++++@@++....++++##$$$$##++++....++@@++++....++@@##++",
"..##%%$$$$$$$$##%%$$$$$$$$####%%%%####$$$$$$$$%%##$$$$$$$$%%##..",
"..##%%$$$$$$$$##%%$$$$$$$$####%%%%####$$$$$$$$%%##$$$$$$$$%%##..",
"..##$$        ++$$        ++##@@@@##++        $$++        $$##..",
"..##$$        ++$$        ++##@@@@##++        $$++        $$##..",
"++##$$        ..$$        ..##$$$$##..        $$..        $$##++",
"++##$$        ..$$        ..##$$$$##..        $$..        $$##++",
"..##$$        ++$$        ++##$$$$##++        $$++        $$##..",
"..##$$        ++$$        ++##$$$$##++        $$++        $$##..",
"..##@@++....++++@@++....++++##%%%%##++++....++@@++++....++@@##..",
"..##@@++....++++@@++....++++##%%%%##++++....++@@++++....++@@##..",
"..##++++++##@@@@++++++##@@@@##@@@@##@@@@##++++++@@@@##++++++##..",
"..##++++++##@@@@++++++##@@@@##@@@@##@@@@##++++++@@@@##++++++##..",
"..##%%$$$$$$$$##%%$$$$$$$$####$$$$####$$$$$$$$%%##$$$$$$$$%%##..",
"..##%%$$$$$$$$##%%$$$$$$$$####$$$$####$$$$$$$$%%##$$$$$$$$%%##..",
"++##$$########++$$####&&&&**##$$$$##**&&&&####$$++########$$##++",
"++##$$########++$$####&&&&**##$$$$##**&&&&####$$++########$$##++",
"&&##$$######@@++$$####**%%@@##%%%%##@@%%**####$$++@@######$$##&&",
"&&##$$######@@++$$####**%%@@##%%%%##@@%%**####$$++@@######$$##&&",
"**##$$####@@@@..$$####%%%%..##@@@@##..%%%%####$$..@@@@####$$##**",
"**##$$####@@@@..$$####%%%%..##@@@@##..%%%%####$$..@@@@####$$##**",
"++##@@++......++@@++......++##$$$$##++......++@@++......++@@##++",
"++##@@++......++@@++......++##$$$$##++......++@@++......++@@##++",
"++##++++####@@@@######@@@@####$$$$####@@@@######@@@@####++++##++",
"++##++++####@@@@######@@@@####$$$$####@@@@######@@@@####++++##++",
"..##%%$$$$$$$$##%%$$$$$$$$++##%%%%##++$$$$$$$$%%##$$$$$$$$%%##..",
"..##%%$$$$$$$$##%%$$$$$$$$++##%%%%##++$$$$$$$$%%##$$$$$$$$%%##..",
"..##$$########++$$########++##@@@@##++########$$++########$$##..",
"..##$$########++$$########++##@@@@##++########$$++########$$##..",
"..##$$######@@..$$######@@..##$$$$##..@@######$$..@@######$$##..",
"..##$$######@@..$$######@@..##$$$$##..@@######$$..@@######$$##..",
"..##$$####@@@@..$$####@@@@..##$$$$##..@@@@####$$..@@@@####$$##..",
"..##$$####@@@@..$$####@@@@..##$$$$##..@@@@####$$..@@@@####$$##..",
"..##@@++......++@@++......++@@%%%%@@++......++@@++......++@@##..",
"..##@@++......++@@++......++@@%%%%@@++......++@@++......++@@##..",
"++##++++++##@@@@##++++##@@@@@@@@@@@@@@@@##++++##@@@@##++++++##++",
"++##++++++##@@@@##++++##@@@@@@@@@@@@@@@@##++++##@@@@##++++++##++",
"..##%%$$$$$$$$##@@$$$$$$$$++##$$$$##++$$$$$$$$@@##$$$$$$$$%%##..",
"..##%%$$$$$$$$##@@$$$$$$$$++##$$$$##++$$$$$$$$@@##$$$$$$$$%%##..",
"&&##$$########++$$########++##$$$$##++########$$++########$$##&&",
"&&##$$########++$$########++##$$$$##++########$$++########$$##&&",
"**##$$######@@..$$######@@..##%%%%##..@@######$$..@@######$$##**",
"**##$$######@@..$$######@@..##%%%%##..@@######$$..@@######$$##**",
"++##$$####@@@@..$$####@@@@..##@@@@##..@@@@####$$..@@@@####$$##++",
"++##$$####@@@@..$$####@@@@..##@@@@##..@@@@####$$..@@@@####$$##++",
"++##@@++......++@@++......++@@$$$$@@++......++@@++......++@@##++",
"++##@@++......++@@++......++@@$$$$@@++......++@@++......++@@##++",
"..@@@@##++++##@@@@##++++##@@@@$$$$@@@@##++++##@@@@##++++##@@@@..",
"..@@@@##++++##@@@@##++++##@@@@$$$$@@@@##++++##@@@@##++++##@@@@..",
"$$%%%%%%%%%%%%%%%%%%%%%%%%%%%%%%%%%%%%%%%%%%%%%%%%%%%%%%%%%%%%$$",
"$$%%%%%%%%%%%%%%%%%%%%%%%%%%%%%%%%%%%%%%%%%%%%%%%%%%%%%%%%%%%%$$"};
