/* XPM */
static char * w1_xpm[] = {
"64 64 277 2",
"  	c #7F7F7F",
". 	c #747474",
"+ 	c #7E7E7E",
"@ 	c #8F8F8F",
"# 	c #686868",
"$ 	c #909090",
"% 	c #757575",
"& 	c #8E8E8E",
"* 	c #737373",
"= 	c #696969",
"- 	c #777777",
"; 	c #787878",
"> 	c #8F8E94",
", 	c #8C918B",
"' 	c #8E908D",
") 	c #908F8B",
"! 	c #696768",
"~ 	c #696866",
"{ 	c #757A76",
"] 	c #7E807D",
"^ 	c #807E83",
"/ 	c #7F7E84",
"( 	c #E7EB7D",
"_ 	c #EEEA53",
": 	c #E7ED59",
"< 	c #747476",
"[ 	c #929292",
"} 	c #F3F9B1",
"| 	c #F3F9AF",
"1 	c #EFEF77",
"2 	c #F0EA56",
"3 	c #EFEB54",
"4 	c #E9EC57",
"5 	c #E9E872",
"6 	c #EFEC4F",
"7 	c #EFEC51",
"8 	c #727272",
"9 	c #F2F8B2",
"0 	c #F4F8AE",
"a 	c #F2F8AE",
"b 	c #ECF171",
"c 	c #EEEB52",
"d 	c #7F7F81",
"e 	c #EEF073",
"f 	c #ECEB52",
"g 	c #6B6B6B",
"h 	c #767676",
"i 	c #D8D784",
"j 	c #DEE073",
"k 	c #E0DF73",
"l 	c #E2E37D",
"m 	c #757479",
"n 	c #767678",
"o 	c #83856D",
"p 	c #84846C",
"q 	c #88826C",
"r 	c #A4906F",
"s 	c #A29068",
"t 	c #A09261",
"u 	c #A29572",
"v 	c #7D7D7D",
"w 	c #E2E7B1",
"x 	c #E5EAB4",
"y 	c #E1E292",
"z 	c #DDDD6B",
"A 	c #DDDC70",
"B 	c #DADC6F",
"C 	c #7E7F71",
"D 	c #7C7C7C",
"E 	c #676767",
"F 	c #F5F8A9",
"G 	c #F5FAA6",
"H 	c #F6FAA6",
"I 	c #E7AF34",
"J 	c #EBAE2F",
"K 	c #DFB34A",
"L 	c #808080",
"M 	c #818181",
"N 	c #6A6A6A",
"O 	c #F5F9A2",
"P 	c #F6F9A8",
"Q 	c #E9B233",
"R 	c #E9AE2E",
"S 	c #E9AF29",
"T 	c #DBB248",
"U 	c #757671",
"V 	c #767479",
"W 	c #757573",
"X 	c #727177",
"Y 	c #8F8D92",
"Z 	c #FCFCFA",
"` 	c #FBFBF9",
" .	c #F4F7B0",
"..	c #F4F8AC",
"+.	c #686866",
"@.	c #FDFDFB",
"#.	c #737371",
"$.	c #FAFAF8",
"%.	c #F1F6BC",
"&.	c #F2F9A9",
"*.	c #F3F8A4",
"=.	c #EDEE4A",
"-.	c #EEEF4C",
";.	c #EDEF46",
">.	c #ECF044",
",.	c #E5AF28",
"'.	c #F3AE2C",
").	c #E9B32C",
"!.	c #847F6C",
"~.	c #7D8085",
"{.	c #EFF04D",
"].	c #F0AC27",
"^.	c #918E89",
"/.	c #F1F7BB",
"(.	c #F4F6AD",
"_.	c #EDED4D",
":.	c #EDED51",
"<.	c #EDED4F",
"[.	c #ECAF30",
"}.	c #E9B02F",
"|.	c #E9B02D",
"1.	c #867E7B",
"2.	c #EAAF31",
"3.	c #928F8A",
"4.	c #ECEE4F",
"5.	c #EAAF2D",
"6.	c #7D8184",
"7.	c #908E8F",
"8.	c #74746A",
"9.	c #757762",
"0.	c #78785E",
"a.	c #7C7652",
"b.	c #7B7752",
"c.	c #777951",
"d.	c #836F56",
"e.	c #867353",
"f.	c #807653",
"g.	c #77746D",
"h.	c #6F6975",
"i.	c #797751",
"j.	c #867355",
"k.	c #767072",
"l.	c #757376",
"m.	c #747378",
"n.	c #757374",
"o.	c #737572",
"p.	c #737574",
"q.	c #707676",
"r.	c #717672",
"s.	c #717670",
"t.	c #676863",
"u.	c #747472",
"v.	c #747570",
"w.	c #80817B",
"x.	c #80817C",
"y.	c #818175",
"z.	c #81807C",
"A.	c #707571",
"B.	c #757472",
"C.	c #73727A",
"D.	c #686964",
"E.	c #67695C",
"F.	c #F0EA4A",
"G.	c #EFED4D",
"H.	c #FCFCFC",
"I.	c #FCFCF0",
"J.	c #F2FAA7",
"K.	c #F2F9AC",
"L.	c #EFEB4C",
"M.	c #676966",
"N.	c #FCFDED",
"O.	c #F1F8AB",
"P.	c #F2EA57",
"Q.	c #8B8B8B",
"R.	c #7E7D83",
"S.	c #83847F",
"T.	c #827F7A",
"U.	c #FAF5EF",
"V.	c #FEFDF9",
"W.	c #FCFEFD",
"X.	c #FBFFE6",
"Y.	c #EFF9B0",
"Z.	c #F1F8B2",
"`.	c #EFF8A7",
" +	c #908F8D",
".+	c #898E8A",
"++	c #737478",
"@+	c #717574",
"#+	c #EEFAB0",
"$+	c #EBAF2B",
"%+	c #F1AC2B",
"&+	c #EEAD2B",
"*+	c #EDAE2B",
"=+	c #EEAD2D",
"-+	c #F0AE26",
";+	c #E6B036",
">+	c #EBAE31",
",+	c #E9E96D",
"'+	c #EAED58",
")+	c #8F8F8D",
"!+	c #67686A",
"~+	c #6B6766",
"{+	c #6C6867",
"]+	c #777372",
"^+	c #787473",
"/+	c #928E8D",
"(+	c #928E8B",
"_+	c #848484",
":+	c #77776D",
"<+	c #757670",
"[+	c #757666",
"}+	c #7F7F7D",
"|+	c #807F84",
"1+	c #F0F7B1",
"2+	c #E8AE33",
"3+	c #E6B131",
"4+	c #EBAD32",
"5+	c #AF9B69",
"6+	c #8E8E96",
"7+	c #8D8D8D",
"8+	c #808082",
"9+	c #E9AD31",
"0+	c #B39968",
"a+	c #7F807B",
"b+	c #91937E",
"c+	c #909181",
"d+	c #90917F",
"e+	c #8C8D85",
"f+	c #908E93",
"g+	c #808171",
"h+	c #80816F",
"i+	c #818473",
"j+	c #F8F8A2",
"k+	c #DDB12A",
"l+	c #E4B22B",
"m+	c #BA9859",
"n+	c #9A8C81",
"o+	c #998E78",
"p+	c #9D8C7A",
"q+	c #938D91",
"r+	c #919191",
"s+	c #F1F6B3",
"t+	c #F2F8BC",
"u+	c #F3FBB0",
"v+	c #EBC63A",
"w+	c #737476",
"x+	c #75746F",
"y+	c #757470",
"z+	c #777370",
"A+	c #7A7176",
"B+	c #F0F7B3",
"C+	c #F2F9AB",
"D+	c #EFF9BD",
"E+	c #FDFCF7",
"F+	c #FFFCF7",
"G+	c #FFFCFB",
"H+	c #F1F9AC",
"I+	c #E7C73E",
"J+	c #E7B031",
"K+	c #EAAE32",
"L+	c #E7B226",
"M+	c #F4FAB2",
"N+	c #DFB23F",
"O+	c #EBAB30",
"P+	c #82725B",
"Q+	c #EBB133",
"R+	c #EBB134",
"S+	c #F6FAAD",
"T+	c #DFB23D",
"U+	c #EDAE2D",
"V+	c #E8AD2B",
"W+	c #777279",
"X+	c #827259",
"Y+	c #EBAF2D",
"Z+	c #ECB133",
"`+	c #ECB328",
" @	c #797979",
"      . . . . . . . . . . . . . . . . .       + @ @ @ @ @ @ @ @ # # # # # @ @ @ $         . . . . . . . . . . . . . . . . %     ",
"      . . . . . . . . . . . . . . . . .       + @ @ @ @ @ @ @ @ # # # # # @ @ @ $         . . . . . . . . . . . . . . . . %     ",
"      + + + + $ @ @ @ @ @ @ @ @ @ @ @ & & & & & @ @ @ @ @ @ @ @ . * * * . @ @ @ @ & & & & @ @ @ @ # = = = - + + + + + + +   % % ",
"              @ @ @ @ @ @ @ @ @ @ @ @ @ @ @ @ @ @ @ @ @ @ @ @ @ . . . . . @ @ @ @ @ @ @ @ @ @ @ @ # # # # ;                 . . ",
"              @ @ @ @ @ @ @ @ @ @ @ @ @ @ @ @ @ @ @ @ @ @ @ @ @ . . . . . @ @ @ @ @ @ @ @ @ @ @ @ # # # # ;                 . . ",
"              @ @ @ @ @ @ @ @ > , , ' ) @ @ @ @ @ @ @ @ @ @ @ @ . . . . . @ @ @ @ @ @ @ @ @ @ @ @ ! ~ ~ ~ {   ] ] ^ /       . . ",
"      # # # # . . . . . . . . ( _ _ _ : < . . . . . . . . . . . [ @ @ @ @ . . . %                 } | } } 1 2 3 3 4 ^           ",
"      # # # # . . . . . . . . 5 6 6 6 7 . . . . . . . . . . . . @ @ @ @ @ . . . 8                 9 0 a a b 7 6 6 c d           ",
"      # # # # . . . . . . . . 5 6 6 6 7 . . . . . . . . . . . . @ @ @ @ @ . . . 8                 9 0 a a b 7 6 6 c d           ",
"      # # # # . . . . . . . . 5 6 6 6 7 . . . . . . . . < . . . @ @ @ ' @ . . . 8                 9 0 a a e 7 6 6 f d           ",
"      g g g g % h h h h h h h i j j k l m % % * h h h n o p p q r s s t u h h h % v v v v v v v v w x x x y z A A B C v v D     ",
"      @ @ @ @                         + # # # E         F G G H I J J J K       L . . . . . . . . . . . . . . . . . . . . %     ",
"      @ @ @ @                         + # # # E         F G G H I J J J K       L . . . . . . . . . . . . . . . . . . . . %     ",
"      @ @ @ @                         + # # # E         F G G H I J J J K       L . . . . . . . . . . . . . . . . . . . . %     ",
"      @ @ @ @                         M # # # N       / O P P H Q R R S T       L . . . . . . . . . . . . . . . . . . . . . L L ",
"      @ @ @ @ @ @ @ @ . . . . . . . . . . . . . . . . . . . . . . . . . . . . . % @ @ @ @ @ @ @ @ @ @ @ @ @ @ @ @ @ @ @ @ $ # # ",
"      @ @ @ @ @ @ @ @ . . . . . . . . . . . . . . . . . . . . . . . . . . . . . % @ @ @ @ @ @ @ @ @ @ @ @ @ @ @ @ @ @ @ @ $ # # ",
"      @ @ @ @ @ @ @ @ . . . . . . . . . . . . . . . . . . . . . . . . . . . . . % @ @ @ @ @ @ @ @ @ @ @ @ @ @ @ @ @ @ @ @ $ # # ",
"+ + + @ @ @ @ $ & & & % . . . . . . . * . . . < U V V W X . . . . . . . * . . . ; @ @ @ & Y Y Y Y $ @ @ @ @ @ @ @ @ @ @ @ @ # # ",
". . . . . . .                         L Z Z Z `  .a a ... . . .         L # # # +.Z Z Z @.a a a a #.. . . . . . . % # # # E     ",
". . . . . . .                         L Z Z Z `  .a a ... . . .         L # # # +.Z Z Z @.a a a a #.. . . . . . . % # # # E     ",
". . . . . . .                         L Z Z Z `  .a a ... . . .         L # # # +.Z Z Z @.a a a a #.. . . . . . . % # # # E     ",
". . . . . . .                         L Z Z Z `  .a a ... . . .         L # # # +.Z Z Z @.a a a a #.. . . . . . . % # # # E     ",
"@ @ @ @ @ @ @ L       $.` ` ` %.&.&.&.*.=.=.=.-.;.;.;.>.,.'.'.).!.        + + + ~.=.=.=.{.].].].].^.@ @ @ @ @ @ @ & & & & & = = ",
"@ @ @ @ @ @ @         Z Z Z Z /.a a a (._._._.:.<.7 7 6 [.}.}.|.1.              ~._._._.6 2.2.2.2.3.@ @ @ @ @ @ @ @ @ @ @ $ # # ",
"@ @ @ @ @ @ @         Z Z Z Z %.a a a (.6 6 6 6 6 6 6 4.[.J J 5.1.              6.6 6 6 6 J J J J 3.7.@ @ @ @ @ @ @ @ @ @ $ # # ",
"@ @ @ @ @ @ @         Z Z Z Z %.a a a (.6 6 6 6 6 6 6 4.[.J J 5.1.              6.6 6 6 6 J J J J 3.7.@ @ @ @ @ @ @ @ @ @ $ # # ",
"+ + + + + + + +       8 * * * 8.9.9.9.0.a.b.b.b.b.a.a.c.d.e.e.f.g.% % % 8 E E E h.a.a.b.i.e.j.j.j.k.l.. . . . . . % + + +   L L ",
"                      % . . . . < < m.n.o.p.p.p.p.p.p.. q.r.r.l.s.. . . * # # # t.p.p.p.n.r.r.r.r.u.v.. . . . . . %             ",
"                      % . . . . . . . . . . . . . . . . . . . . . . . . * # # # E . . . . . . . . . . . . . . . . %             ",
"                      % . . . . . . . . . . . . . . . . . . . . . . . . * # # # E . . . . . . . . . . . . . . . . %             ",
"      w.x.x.x.y.z.z.z.A.. . . . * * * . . . . % . . . . . . . . W . . B.C.D.D.D.E.* * * * * * * * * * * * * * * * * L L L L L L ",
"      a a a a F.G.G.G.D.# # # @ @ @ @ @ . . . %                 Z Z Z H.I.a a a J.@ @ @ @ @ @ @ @ @ @ @ @ @ @ @ @ @ @ @ @ @ @ @ ",
"      K.a a a L.6 6 6 M.# # # @ @ @ @ @ . . . %                 Z Z Z Z N.a a a K.@ @ @ @ @ @ @ @ @ @ @ @ @ @ @ @ @ @ @ @ @ @ @ ",
"      K.a a a L.6 6 6 M.# # # @ @ @ @ @ . . . %                 Z Z Z Z N.a a a K.@ @ @ @ @ @ @ @ @ @ @ @ @ @ @ @ @ @ @ @ @ @ @ ",
"      O.O.O.O.P.3 3 3 E # # # Q.@ @ @ & . . . . + + + R.S.d d T.U.V.V.W.X.Y.Y.Z.`. + + +.+@ @ @ @ @ @ @ @ @ @ @ @ & @ @ @ & @ @ ",
"      < < < < ++@+@+@+s.. . . . . . . . . . . . . . . u.K.K.K.#+$+%+%+&+*+*+*+=+*+%+%+%+-+. . . . . . . . . . . . * @ @ @ @     ",
"      . . . . . . . . . . . . . . . . . . . . . . . . m.a a a ..;+J J J J J J J J J J J >+. . . . . . . . . . . . * @ @ @ @     ",
"      . . . . . . . . . . . . . . . . . . . . . . . . m.a a a ..;+J J J J J J J J J J J >+. . . . . . . . . . . . * @ @ @ @     ",
"      . . . . . . . . . . . . . . . . . . . . . . . . m.a a a ..;+J J J J J J J J J J J >+. . . . . . . . . . . . * @ @ @ @     ",
"              @ @ @ @ . . . . ,+G.G.G.'+@ @ @ @ @ @ @ )+W . . . !+~+~+~+{+]+]+]+^+/+/+/+(+@ @ @ @ @ @ @ @ _+                    ",
"              @ @ @ @ . . . . 5 6 6 6 7 @ @ @ @ @ @ @ @ % . . . # # # # = . . . % @ @ @ @ @ @ @ @ @ @ @ @ _+                    ",
"              @ @ @ @ . . . . 5 6 6 6 7 @ @ @ @ @ @ @ @ % . . . # # # # = . . . % @ @ @ @ @ @ @ @ @ @ @ @ _+                    ",
"              @ @ @ @ . . . . 5 6 6 6 7 @ @ @ @ @ @ @ @ % . . . # # # # = . . . % @ @ @ @ @ @ @ @ @ @ @ @ _+                    ",
"# # #                         :+<+<+<+[+}+                      @ @ @ @ @ @ @ @ $       |+1+1+1+1+2+3+4+4+5+6+@ @ @ @ @ @ $ # # ",
"# # #                         % . . . .                         7+@ @ @ @ @ @ @ $       8+a a a a 9+J J J 0+ +@ @ @ @ @ @ $ # # ",
"# # #                         % . . . .                         7+@ @ @ @ @ @ @ $       8+a a a a 9+J J J 0+ +@ @ @ @ @ @ $ # # ",
"# # #                         % . . . .                         7+@ @ @ @ @ @ @ $       8+a a a a 9+J J J 0+ +@ @ @ @ @ @ $ # # ",
"# # #                         % . . . *                       a+b+c+c+d+e+)+)+)+f+g+g+h+i+j+j+j+j+k+l+l+l+m+n+o+o+p+q+@ @ r+# # ",
"      . . . . . . . . . . . . . . . . . . . . . . . . . . . . n.s+a a K.t+Z Z Z @.a a a u+6 6 6 6 6 6 6 6 v+>+J J 2.w+. . %     ",
"      . . . . . . . . . . . . . . . . . . . . . . . . . . . . n.s+a a K.t+Z Z Z @.a a a u+6 6 6 6 6 6 6 6 v+>+J J 2.w+. . %     ",
"      . . . . . . . . . . . . . . . . . . . . . . . . . . . . n.s+a a K.t+Z Z Z @.a a a u+6 6 6 6 6 6 6 6 v+>+J J 2.w+. . %     ",
"      . . . . . . . . . < < < x+y+y+z+A+B.. . . . . . . . . . v.B+K.K.C+D+E+E+F+G+H+H+H+u+:.:.:.:.:.:.:.:.I+J+K+K+L+p.. . %     ",
"      @ @ @ @ . . . . M+a a a N+J J J O+                * . . . . . . n.P+J J J J Q+Q+Q+R+. . . .                 + @ @ @ @ @ @ ",
"      @ @ @ @ . . . . M+a a a N+J J J O+                * . . . . . . n.P+J J J J Q+Q+Q+R+. . . .                 + @ @ @ @ @ @ ",
"      @ @ @ @ . . . . M+a a a N+J J J O+                * . . . . . . n.P+J J J J Q+Q+Q+R+. . . .                 + @ @ @ @ @ @ ",
"      @ @ @ @ . . . . S+K.K.K.T+U+U+U+V+d               * . . . . . . W+X+U+U+U+Y+Z+Z+Z+`+. . . .                 + @ @ @ @ @ @ ",
"                      % . . . . . . . . . . . . . . . . . . . .                 + @ @ @ @ @ @ @ @          @. . . . . . . %     ",
"                      % . . . . . . . . . . . . . . . . . . . .                 + @ @ @ @ @ @ @ @          @. . . . . . . %     ",
"                      % . . . . . . . . . . . . . . . . . . . .                 + @ @ @ @ @ @ @ @          @. . . . . . . %     ",
"                      % . . . . . . . . . . . . . . . . . . . .                 + @ @ @ @ @ @ @ @          @. . . . . . . %     ",
". . . . . . . . . . . . . . . = # # # E @ @ @ @ @ @ @ @                                   . . . . . . . . . . . . %             ",
". . . . . . . . . . . . . . . = # # # E @ @ @ @ @ @ @ @                                   . . . . . . . . . . . . %             ",
". . . . . . . . . . . . . . . = # # # E @ @ @ @ @ @ @ @                                   . . . . . . . . . . . . %             "};
