/* XPM */
static char * w2_xpm[] = {
"64 64 106 2",
"  	c #9B9B9B",
". 	c #7D7D7D",
"+ 	c #8C8C8C",
"@ 	c #AFAFAF",
"# 	c #ABABAB",
"$ 	c #707070",
"% 	c #ADADAD",
"& 	c #AFB1A5",
"* 	c #AFB1A3",
"= 	c #B2AFA3",
"- 	c #7D7F72",
"; 	c #7D7E75",
"> 	c #807B7D",
", 	c #7E7E70",
"' 	c #9B9D8F",
") 	c #9B9D91",
"! 	c #9E9C8F",
"~ 	c #FF1D31",
"{ 	c #FF1F28",
"] 	c #FF1E2A",
"^ 	c #FE1F2D",
"/ 	c #FF1F26",
"( 	c #FF2020",
"_ 	c #FE1D35",
": 	c #9B9C95",
"< 	c #FF1F2C",
"[ 	c #FF2122",
"} 	c #FF211E",
"| 	c #FF1F24",
"1 	c #FF2022",
"2 	c #9B9C93",
"3 	c #FF1E2D",
"4 	c #FE2122",
"5 	c #9B9B99",
"6 	c #9A9A98",
"7 	c #AFAFAD",
"8 	c #FE2120",
"9 	c #FC1F2F",
"0 	c #9C9A99",
"a 	c #D90000",
"b 	c #DA0001",
"c 	c #D80004",
"d 	c #9A9A9A",
"e 	c #7E7E7E",
"f 	c #828282",
"g 	c #DA0106",
"h 	c #DA0104",
"i 	c #D9000B",
"j 	c #DC000B",
"k 	c #DC000C",
"l 	c #7D7E77",
"m 	c #7D7D79",
"n 	c #7D7D7B",
"o 	c #AFAFAB",
"p 	c #FF2124",
"q 	c #FE2026",
"r 	c #7D7F70",
"s 	c #FC1F2D",
"t 	c #FF202A",
"u 	c #FE1F2A",
"v 	c #DC0004",
"w 	c #DA0005",
"x 	c #D90009",
"y 	c #D90013",
"z 	c #ADAFA7",
"A 	c #DA0007",
"B 	c #D8000C",
"C 	c #DC0100",
"D 	c #D90101",
"E 	c #DC0001",
"F 	c #DA000B",
"G 	c #DA0009",
"H 	c #D8000A",
"I 	c #AFB0A9",
"J 	c #DA0000",
"K 	c #FE2024",
"L 	c #D90005",
"M 	c #D90003",
"N 	c #DA0003",
"O 	c #D90011",
"P 	c #DA000C",
"Q 	c #DA0202",
"R 	c #D9000D",
"S 	c #9B9C97",
"T 	c #9B9A9D",
"U 	c #FE1F28",
"V 	c #AFB0A7",
"W 	c #9C9A9B",
"X 	c #D9000F",
"Y 	c #D90007",
"Z 	c #D90008",
"` 	c #DA000A",
" .	c #DC0006",
"..	c #DA0008",
"+.	c #FF1D2A",
"@.	c #DC0102",
"#.	c #FE1F21",
"$.	c #9B999A",
"%.	c #FF2126",
"&.	c #9A999C",
"*.	c #ADAEAB",
"=.	c #989A9C",
"-.	c #D7000B",
";.	c #9B989C",
">.	c #ADAFA5",
",.	c #ADAEA9",
"        . . . . . . . . . . . . . . . . + + + + @ @ @ @ # # # # $ $ $ $ % @ @ @                                                 ",
"        . . . . . . . . . . . . . . . . + + + + @ @ @ @ # # # # $ $ $ $ % @ @ @                                                 ",
"        . . . . . . . . . . . . . . . . + + + + @ @ @ @ # # # # $ $ $ $ @ @ @ @                                                 ",
"        . . . . . . . . . . . . . . . . + + + + @ @ @ @ # # # # $ $ $ $ @ @ @ @                                                 ",
"                @ @ @ @ @ @ @ @ @ @ @ @ @ @ @ @                         @ @ @ @ @ @ @ @ @ @ @ @ . . . .                         ",
"                @ @ @ @ @ @ @ @ @ @ @ @ @ @ @ @                         @ @ @ @ @ @ @ @ @ @ @ @ . . . .                         ",
"                @ @ @ @ @ @ @ @ @ @ @ @ @ @ @ @                         @ @ @ @ @ @ @ @ @ @ @ @ . . . .                         ",
"                @ @ @ @ @ @ @ @ & * = & @ @ @ @                         @ @ @ @ @ @ @ @ @ @ @ @ - ; > , ' ' ) !                 ",
"        . . . .               ' ~ { ] ^                         @ @ @ @ . . . .               ' ~ / ( ] / { ] _ :               ",
"        . . . .               ' < [ } |                         @ @ @ @ . . . .               ' { ( ( ( ( 1 } ] 2               ",
"        . . . .               ' { ( ( 1                         @ @ @ @ . . . .               ' { ( ( ( ( ( ( ^ 2               ",
"        . . . .               ' 3 | 4 {                 5 6 5 5 7 7 @ 7 . . . .               ' 3 4 8 ( 8 8 ( 9 2               ",
"        @ @ @ @                     5 0 . . . .       5 [ ( ( ( a a b c d       e e . . . . . . f f f f . . . . . . . .         ",
"        @ @ @ @                         . . . .       5 ( ( ( ( b b b g         . . . . . . . . f f f f . . . . . . . .         ",
"        @ @ @ @                         . . . .       5 } ( ( ( b b b h         . . . . . . . . f f f f . . . . . . . .         ",
"        @ @ @ @                         . . . .         ] 8 8 8 i i j k         . . . . . . . . f f f f . . . . . . . .         ",
"        @ @ @ @ @ @ @ @ . . . . . . . . . . . . . . . . l . . . l m l ; . . . . @ @ @ @ @ @ @ @ @ @ @ @ @ @ @ @ @ @ @ @ e . . . ",
"        @ @ @ @ @ @ @ @ . . . . . . . . . . . . . . . . . . . . . . . . . . . . @ @ @ @ @ @ @ @ @ @ @ @ @ @ @ @ @ @ @ @ e . . . ",
"        @ @ @ @ @ @ @ @ . . . . . . . . . . . . . . . . . . . . . . . . . . . . @ @ @ @ @ @ @ @ @ @ @ @ @ @ @ @ @ @ @ @ . . . . ",
"        @ @ @ @ @ @ @ @ . . . . . . . . n . . . . . . n . . . . . . . . . . . . 7 7 7 o 7 7 7 7 @ @ @ @ @ @ @ @ @ @ @ @ . . . . ",
". . . . . . . .                       5 p ( ( ( ( ( ( q                 . . . r < [ ( ( ( ( ( s :               . . . . d       ",
". . . . . . . .                       5 ( 8 ( ( 8 ( ( | 5               . . . . ( ( ( ( ( ( ( ^ 2               . . . .         ",
". . . . . . . .                       5 } ( ( ( ( ( ( 1 5               . . . . ( ( ( ( ( ( ( ^ 2               . . . .         ",
". . . . . . . .         ' ' ) ! ) ' ' ) } ( ( ( ( ( ( ( ' ' ) '         . . . . | } ( ( ( ( ( ] 2               . . . .         ",
"@ @ @ @ @ @ @ @       5 t ] ] / u | ] ] v b b b b b b b w x i y z % @ @       ' A b b b b b b B z % @ @ @ @ @ @ @ @ @ @ e . . . ",
"@ @ @ @ @ @ @ @       5 [ } 1 } ( 1 ( ( C b D D E D D D E b b F z % @ @       ' G b b b b b E H z % @ @ @ @ @ @ @ @ @ @ e . . . ",
"@ @ @ @ @ @ @ @       5 ( ( ( ( ( ( ( ( C b b b b b b b b b b F I @ @ @       ' G J b b b b b F I @ @ @ @ @ @ @ @ @ @ @ . . . . ",
"@ @ @ @ @ @ @ @       5 1 / K 4 / 1 4 q v w L M w M M w N L w O I @ @ @       ' P Q D D D D D R I @ @ @ @ @ @ @ @ @ @ @ . . . . ",
"                          5   S T 5 5   5     S T 5 5   5     S         . . . .                                                 ",
"                                                                        . . . .                                                 ",
"                                                                        . . . .                                                 ",
"        ' ' ) ! ) ' ' )                                         ) ' ' ) r n . . 5                                               ",
"      5 t ] ] / u / { ^ . . . . @ @ @ @                       ' ~ { ] { U 4 ( ^ I @ @ @ @ @ @ @ @ @ @ @ @ @ @ @ @ @ @ @ @ @ @ @ ",
"      5 [ } 1 } } } } 1 . . . . @ @ @ @                       ' { ( } 1 } } } 3 I @ @ @ @ @ @ @ @ @ @ @ @ @ @ @ @ @ @ @ @ @ @ @ ",
"      5 ( ( ( ( ( ( ( 1 . n . . @ @ @ @                       ' { ( ( ( ( ( ( ^ V @ @ @ @ @ @ @ @ @ @ @ @ @ @ @ @ @ @ @ @ @ @ @ ",
"      5 1 / K 4 / 1 4 q . . . . @ @ @ @                 5     ' / } ( ( ( ( ( 3 & 7 @ 7 @ @ @ @ @ @ @ @ @ @ @ @ @ @ @ @ @ @ @ @ ",
"          5   S T 5 5 W                               5 D D D D b N b b b b b b D D D L                         @ @ @ @         ",
"                                                        D E b b b b b b b b b b b b b L                         @ @ @ @         ",
"                                                        D b b b b b b b b b b b b b b L                         @ @ @ @         ",
"                                ) ' ' )                 i F i j F F F i F F i F F F F R                         @ @ @ @         ",
"                @ @ @ @       ' X Y Z P @ @ @ @ @ @ @ @ S : 2 S ; m l ; S : 2 S V o I V @ @ @ @ @ @ @ @                         ",
"                @ @ @ @       ' ` Q E  .@ @ @ @ @ @ @ @         . . . .         @ @ @ @ @ @ @ @ @ @ @ @                         ",
"                @ @ @ @       ' G E b g @ @ @ @ @ @ @ @         . . . .         @ @ @ @ @ @ @ @ @ @ @ @                         ",
"                @ @ @ @       ' P N M ..@ @ @ @ @ @ @ @         . . . .         @ @ @ @ 7 7 7 7 7 7 @ 7                         ",
". . . .                           d   T                         @ @ @ @ @ @ @ @       5 [ ( ( ( b b b g % @ @ @ @ @ @ @ . . . . ",
". . . .                                                         @ @ @ @ @ @ @ @       5 ( ( ( ( b b b L @ @ @ @ @ @ @ @ . . . . ",
". . . .                                                         @ @ @ @ @ @ @ @       5 } ( ( ( b b b M @ @ @ @ @ @ @ @ . . . . ",
". . . .                                                         & * * & * * & * ' ' ' ) } ( ( ( b b b D * = & * @ @ @ @ . . . . ",
"        . . . . . . . . . . . . . . . . . . . . . . . . . . . r ~ / ] { { U { q +./ U { @.b b b b b b b Y Y Z y l . . .         ",
"        . . . . . . . . . . . . . . . . . . . . . . . . . . . ; / 1 } 1 } } } } } ( ( } v b J b b b b b b b b F l . . .         ",
"        . . . . . . . . . . . . . . . . . . . . . . . . . . . . 1 ( ( ( ( ( ( ( ( ( ( ( @.b b b b b b b b b b i l . . .         ",
"        . . . . . . . . n . . . . . . n . . . . . . . . . . . r u 1 1 K ( ( ( ( ( ( ( ( h L w N L N N L N w L O l . . .         ",
"        @ @ @ @ @ @ @ 7 #.( ( ( ( ( ( / % @ @ @ @ @ @ @ d             0 C @.@.@.@.@.@. .$.$.d d $.d d $.d d $.$.@ @ @ @ @ @ @ @ ",
"        @ @ @ @ @ @ @ 7 ( ( ( ( ( ( ( %.7 @ @ @ @ @ @ @               0 J b b b b b b N &.                      @ @ @ @ @ @ @ @ ",
"        @ @ @ @ @ @ @ 7 } ( ( ( ( ( ( | *.@ @ @ @ @ @ @               0 J D b b b b b N =.                      @ @ @ @ @ @ @ @ ",
"        @ @ @ @ @ @ @ @ ] ^ u ^ u ^ ^ s *.@ @ @ @ @ @ @               0 -.F i j F F F R ;.                      @ @ @ @ @ @ @ @ ",
"                        : 2 2 : 2 : 2 2                                 : : 2 S >.,.I V @ @ @ @                                 ",
"                                                                                % % @ @ @ @ @ @                                 ",
"                                                                                @ @ @ @ @ @ @ @                                 ",
"                                                                                @ @ @ @ @ @ @ @                                 ",
"                                                @ @ @ @ @ @ @ @                                                                 ",
"                                                @ @ @ @ @ @ @ @                                                                 ",
"                                                @ @ @ @ @ @ @ @                                                                 ",
"                                                @ @ @ @ @ @ @ @                                                                 "};
