/* XPM */
static char * w3_xpm[] = {
"64 64 7 1",
" 	c #918B8D",
".	c #707070",
"+	c #9D999D",
"@	c #8A888A",
"#	c #9E9B9E",
"$	c #212121",
"%	c #121212",
"    ........        ++++@@@@....################@@@@....########",
"    ........        ++++@@@@....################@@@@....########",
"    ........        ++++@@@@....################@@@@....########",
"    ........        ++++@@@@....################@@@@....########",
"            ################@@@@........@@@@@@@@@@@@############",
"            ################@@@@........@@@@@@@@@@@@############",
"            ################@@@@........@@@@@@@@@@@@############",
"            ################@@@@........@@@@@@@@@@@@############",
"........########$$$$############################$$$$%%%%@@@@....",
"........########$$$$############################$$$$%%%%@@@@....",
"........########$$$$############################$$$$%%%%@@@@....",
"........########$$$$############################$$$$%%%%@@@@....",
"@@@@@@@@########....@@@@####%%%%$$$$........####################",
"@@@@@@@@########....@@@@####%%%%$$$$........####################",
"@@@@@@@@########....@@@@####%%%%$$$$........####################",
"@@@@@@@@########....@@@@####%%%%$$$$........####################",
"####....@@@@....############@@@@########@@@@@@@@@@@@########@@@@",
"####....@@@@....############@@@@########@@@@@@@@@@@@########@@@@",
"####....@@@@....############@@@@########@@@@@@@@@@@@########@@@@",
"####....@@@@....############@@@@########@@@@@@@@@@@@########@@@@",
"....################%%%%%%%%############%%%%%%%%########....@@@@",
"....################%%%%%%%%############%%%%%%%%########....@@@@",
"....################%%%%%%%%############%%%%%%%%########....@@@@",
"....################%%%%%%%%############%%%%%%%%########....@@@@",
"############$$$$%%%%%%%%%%%%%%%%########$$$$%%%%########@@@@####",
"############$$$$%%%%%%%%%%%%%%%%########$$$$%%%%########@@@@####",
"############$$$$%%%%%%%%%%%%%%%%########$$$$%%%%########@@@@####",
"############$$$$%%%%%%%%%%%%%%%%########$$$$%%%%########@@@@####",
"........@@@@################@@@@########################....####",
"........@@@@################@@@@########################....####",
"........@@@@################@@@@########################....####",
"........@@@@################@@@@########################....####",
"####$$$$%%%%@@@@....@@@@@@@@####%%%%%%%%################@@@@####",
"####$$$$%%%%@@@@....@@@@@@@@####%%%%%%%%################@@@@####",
"####$$$$%%%%@@@@....@@@@@@@@####%%%%%%%%################@@@@####",
"####$$$$%%%%@@@@....@@@@@@@@####%%%%%%%%################@@@@####",
"@@@@########@@@@....@@@@....%%%%%%%%%%%%$$$$....@@@@########@@@@",
"@@@@########@@@@....@@@@....%%%%%%%%%%%%$$$$....@@@@########@@@@",
"@@@@########@@@@....@@@@....%%%%%%%%%%%%$$$$....@@@@########@@@@",
"@@@@########@@@@....@@@@....%%%%%%%%%%%%$$$$....@@@@########@@@@",
"################$$$$############################....@@@@@@@@####",
"################$$$$############################....@@@@@@@@####",
"################$$$$############################....@@@@@@@@####",
"################$$$$############################....@@@@@@@@####",
"....@@@@########################............%%%%%%%%########@@@@",
"....@@@@########################............%%%%%%%%########@@@@",
"....@@@@########################............%%%%%%%%########@@@@",
"....@@@@########################............%%%%%%%%########@@@@",
"################....############$$$$%%%%%%%%%%%%$$$$$$$$########",
"################....############$$$$%%%%%%%%%%%%$$$$$$$$########",
"################....############$$$$%%%%%%%%%%%%$$$$$$$$########",
"################....############$$$$%%%%%%%%%%%%$$$$$$$$########",
"############$$$$%%%%@@@@....####@@@@$$$$%%%%@@@@........########",
"############$$$$%%%%@@@@....####@@@@$$$$%%%%@@@@........########",
"############$$$$%%%%@@@@....####@@@@$$$$%%%%@@@@........########",
"############$$$$%%%%@@@@....####@@@@$$$$%%%%@@@@........########",
"####....@@@@@@@@########@@@@....@@@@@@@@####....############@@@@",
"####....@@@@@@@@########@@@@....@@@@@@@@####....############@@@@",
"####....@@@@@@@@########@@@@....@@@@@@@@####....############@@@@",
"####....@@@@@@@@########@@@@....@@@@@@@@####....############@@@@",
"############@@@@....@@@@........@@@@....@@@@############@@@@....",
"############@@@@....@@@@........@@@@....@@@@############@@@@....",
"############@@@@....@@@@........@@@@....@@@@############@@@@....",
"############@@@@....@@@@........@@@@....@@@@############@@@@...."};
