/* XPM */
static char * w4_xpm[] = {
"64 64 253 2",
"  	c #7F7F7F",
". 	c #747474",
"+ 	c #7E7E7E",
"@ 	c #8F8F8F",
"# 	c #686868",
"$ 	c #909090",
"% 	c #757575",
"& 	c #8E8E8E",
"* 	c #737373",
"= 	c #696969",
"- 	c #777777",
"; 	c #787878",
"> 	c #757A76",
", 	c #837D7D",
"' 	c #7E7F81",
") 	c #827D81",
"! 	c #837D7F",
"~ 	c #FFFFFF",
"{ 	c #FEFEFE",
"] 	c #FDFDFD",
"^ 	c #929292",
"/ 	c #A0EDF3",
"( 	c #61E9F7",
"_ 	c #60EAF5",
": 	c #60EBEE",
"< 	c #857C81",
"[ 	c #727272",
"} 	c #97EFF3",
"| 	c #5DEBF7",
"1 	c #5DEBF5",
"2 	c #5FE9F3",
"3 	c #7F7F7D",
"4 	c #8E908F",
"5 	c #8F8F8D",
"6 	c #99EEF3",
"7 	c #5EEAF7",
"8 	c #5FE9F4",
"9 	c #7C807F",
"0 	c #6B6B6B",
"a 	c #767676",
"b 	c #EEEEEE",
"c 	c #F1F1F1",
"d 	c #F3F3F3",
"e 	c #838383",
"f 	c #828282",
"g 	c #828284",
"h 	c #72A4A3",
"i 	c #74A1A4",
"j 	c #70A3A4",
"k 	c #7D9EA3",
"l 	c #7D7D7D",
"m 	c #F2F2F2",
"n 	c #A8DEE8",
"o 	c #76D5DB",
"p 	c #74D5DC",
"q 	c #79D6DB",
"r 	c #7A7E81",
"s 	c #7C7C7C",
"t 	c #676767",
"u 	c #62EBF3",
"v 	c #71E4E9",
"w 	c #808080",
"x 	c #818181",
"y 	c #6A6A6A",
"z 	c #F8FFFF",
"A 	c #6AE9FA",
"B 	c #5EEBF5",
"C 	c #5AECFB",
"D 	c #70E2EC",
"E 	c #737278",
"F 	c #7B7074",
"G 	c #7A7172",
"H 	c #7A7078",
"I 	c #717179",
"J 	c #91908E",
"K 	c #FFFEFF",
"L 	c #5DECF4",
"M 	c #5DEBF9",
"N 	c #727473",
"O 	c #686866",
"P 	c #FCFCFA",
"Q 	c #FDFEF9",
"R 	c #C2F7FB",
"S 	c #747476",
"T 	c #747472",
"U 	c #D0F3F5",
"V 	c #C4F7FA",
"W 	c #BCFBFF",
"X 	c #95F7FA",
"Y 	c #94F8F8",
"Z 	c #9BF3F4",
"` 	c #70EFF8",
" .	c #70EFF6",
"..	c #76ECF6",
"+.	c #5CE9F0",
"@.	c #59EEF4",
"#.	c #57EFF0",
"$.	c #718482",
"%.	c #C3F5F4",
"&.	c #57F0F5",
"*.	c #58EFF6",
"=.	c #8B9191",
"-.	c #CCF4F6",
";.	c #C2F8FF",
">.	c #99F3FB",
",.	c #96F4F6",
"'.	c #72EEF8",
").	c #72EEF6",
"!.	c #5CECF5",
"~.	c #7C7F84",
"{.	c #C0F6F6",
"].	c #5CECF7",
"^.	c #CBF4F8",
"/.	c #C2F9FF",
"(.	c #9AF3F9",
"_.	c #96F3F8",
":.	c #73EEF6",
"<.	c #7C8083",
"[.	c #C0F6F8",
"}.	c #6D767B",
"|.	c #6B7880",
"1.	c #6A7A79",
"2.	c #667B80",
"3.	c #677A7E",
"4.	c #687C7D",
"5.	c #588082",
"6.	c #5C7E7F",
"7.	c #5F7D7F",
"8.	c #567E7E",
"9.	c #5D7A7E",
"0.	c #737977",
"a.	c #6B6C70",
"b.	c #69777A",
"c.	c #567E80",
"d.	c #737277",
"e.	c #757374",
"f.	c #717672",
"g.	c #777276",
"h.	c #737478",
"i.	c #717576",
"j.	c #737572",
"k.	c #757470",
"l.	c #757472",
"m.	c #707578",
"n.	c #777372",
"o.	c #737574",
"p.	c #717670",
"q.	c #78837B",
"r.	c #7F8084",
"s.	c #767779",
"t.	c #6F7573",
"u.	c #747570",
"v.	c #66676B",
"w.	c #6C676B",
"x.	c #5CECF4",
"y.	c #5DECF2",
"z.	c #666865",
"A.	c #FFFFFD",
"B.	c #EDFFFF",
"C.	c #5AEDF5",
"D.	c #646869",
"E.	c #EAFFFF",
"F.	c #5AECF9",
"G.	c #62EBFB",
"H.	c #5FECF6",
"I.	c #646D68",
"J.	c #8B8B8B",
"K.	c #807E7F",
"L.	c #FCFFFF",
"M.	c #FEFFFD",
"N.	c #FEFFFF",
"O.	c #E2FFFF",
"P.	c #54F0FC",
"Q.	c #8E8F91",
"R.	c #757378",
"S.	c #C2FAF9",
"T.	c #C4F6FD",
"U.	c #BBFAFF",
"V.	c #79EEF5",
"W.	c #7CEFF6",
"X.	c #5AEDF4",
"Y.	c #C5F8F9",
"Z.	c #C1F8FB",
"`.	c #B7FCFF",
" +	c #78EFF7",
".+	c #7CEEF8",
"++	c #5FEBF8",
"@+	c #6C6668",
"#+	c #656968",
"$+	c #646A68",
"%+	c #6C6867",
"&+	c #737476",
"*+	c #767479",
"=+	c #8E8F93",
"-+	c #8C8F94",
";+	c #848484",
">+	c #62E8F3",
",+	c #61E9F5",
"'+	c #5EEBF4",
")+	c #79AEB4",
"!+	c #958C8F",
"~+	c #8D8D8D",
"{+	c #60E8F4",
"]+	c #908E91",
"^+	c #8E9494",
"/+	c #879296",
"(+	c #889196",
"_+	c #748483",
":+	c #728583",
"<+	c #788887",
"[+	c #F2FFFF",
"}+	c #63E7F4",
"|+	c #5EEBF2",
"1+	c #61EAF4",
"2+	c #6EBCC0",
"3+	c #7D969D",
"4+	c #7E969A",
"5+	c #77949A",
"6+	c #908E8F",
"7+	c #919191",
"8+	c #F9FFFF",
"9+	c #C1F6FC",
"0+	c #AEF5F9",
"a+	c #AFF4F9",
"b+	c #8CF2F7",
"c+	c #6CECF5",
"d+	c #6BEEF6",
"e+	c #6DEDF6",
"f+	c #65EBF6",
"g+	c #60EAF4",
"h+	c #6E7772",
"i+	c #F4FFFF",
"j+	c #BFF9FB",
"k+	c #C1F8FD",
"l+	c #BDF9F9",
"m+	c #AFF3FC",
"n+	c #AFF5F7",
"o+	c #8EF0F9",
"p+	c #6CECF7",
"q+	c #6DEDF8",
"r+	c #6EECF8",
"s+	c #66EAF7",
"t+	c #60EAF7",
"u+	c #60E9F9",
"v+	c #777279",
"w+	c #79E1EA",
"x+	c #FFFEFD",
"y+	c #76E3E8",
"z+	c #5AEDF7",
"A+	c #5CEDF0",
"B+	c #807E81",
"C+	c #57F1F3",
"D+	c #797979",
"      . . . . . . . . . . . . . . . . .       + @ @ @ @ @ @ @ @ # # # # # @ @ @ $         . . . . . . . . . . . . . . . . %     ",
"      . . . . . . . . . . . . . . . . .       + @ @ @ @ @ @ @ @ # # # # # @ @ @ $         . . . . . . . . . . . . . . . . %     ",
"      + + + + $ @ @ @ @ @ @ @ @ @ @ @ & & & & & @ @ @ @ @ @ @ @ . * * * . @ @ @ @ & & & & @ @ @ @ # = = = - + + + + + + +   % % ",
"              @ @ @ @ @ @ @ @ @ @ @ @ @ @ @ @ @ @ @ @ @ @ @ @ @ . . . . . @ @ @ @ @ @ @ @ @ @ @ @ # # # # ;                 . . ",
"              @ @ @ @ @ @ @ @ @ @ @ @ @ @ @ @ @ @ @ @ @ @ @ @ @ . . . . . @ @ @ @ @ @ @ @ @ @ @ @ # # # # ;                 . . ",
"              @ @ @ @ @ @ @ @ @ @ @ @ @ @ @ @ @ @ @ @ @ @ @ @ @ . . . . . @ @ @ @ @ @ @ @ @ @ @ @ # # # # > , ' ' ) !       . . ",
"      # # # # . . . . . . . . ~ { { { ] . . . . . . . . . . . . ^ @ @ @ @ . . . %                 ~ ~ ~ ~ / ( _ _ : <           ",
"      # # # # . . . . . . . . ~ ~ ~ ~ ~ . . . . . . . . . . . . @ @ @ @ @ . . . [                 ~ ~ ~ ~ } | 1 1 2 3           ",
"      # # # # . . . . . . . . ~ ~ ~ ~ ~ . . . . . . . . . . . . @ @ @ @ @ . . . [                 ~ ~ ~ ~ } | 1 1 2 3           ",
"      # # # # . . . . . . . . ~ ~ ~ ~ ~ . . . . . . . . . . . . 4 @ @ 5 @ . . . [                 ~ ~ ~ ~ 6 7 1 1 8 9           ",
"      0 0 0 0 % a a a a a a a b c c c d % % % * a a a a e f f g h i i j k a a a % l l l l l l l l m c c c n o p p q r l l s     ",
"      @ @ @ @                         + # # # t         ~ ~ ~ ~ u 1 1 1 v       w . . . . . . . . . . . . . . . . . . . . %     ",
"      @ @ @ @                         + # # # t         ~ ~ ~ ~ u 1 1 1 v       w . . . . . . . . . . . . . . . . . . . . %     ",
"      @ @ @ @                         + # # # t         ~ ~ ~ ~ u 1 1 1 v       w . . . . . . . . . . . . . . . . . . . . %     ",
"      @ @ @ @                         x # # # y         ] ~ ~ z A B B C D       w . . . . . . . . . . . . . . . . . . . . . w w ",
"      @ @ @ @ @ @ @ @ . . . . . . . . . . . . . . . . . . . . . . . . . . . . . % @ @ @ @ @ @ @ @ @ @ @ @ @ @ @ @ @ @ @ @ $ # # ",
"      @ @ @ @ @ @ @ @ . . . . . . . . . . . . . . . . . . . . . . . . . . . . . % @ @ @ @ @ @ @ @ @ @ @ @ @ @ @ @ @ @ @ @ $ # # ",
"      @ @ @ @ @ @ @ @ . . . . . . . . . . . . . . . . . . . . . . . . . . . . . % @ @ @ @ @ @ @ @ @ @ @ @ @ @ @ @ @ @ @ @ $ # # ",
"+ + + @ @ @ @ $ & & & % . . . . . . . . . . . E F G G H I . . . . . . . * . . . ; @ @ @ @ J J J J & @ @ @ @ @ @ @ @ @ @ @ @ # # ",
". . . . . . .                         w ~ ~ ~ K L 1 1 M N . . .         w # # # O P P P Q R R R R S T . . . . . . % # # # t     ",
". . . . . . .                         w ~ ~ ~ K L 1 1 M N . . .         w # # # O P P P Q R R R R S T . . . . . . % # # # t     ",
". . . . . . .                         w ~ ~ ~ K L 1 1 M N . . .         w # # # O P P P Q R R R R S T . . . . . . % # # # t     ",
". . . . . . .                         w ~ ~ ~ K L 1 1 M N . . .         w # # # O P P P Q R R R R S T . . . . . . % # # # t     ",
"@ @ @ @ @ @ @ w       { ~ ~ ~ U V V V W X Y Y Z `  . ...+.@.@.#.$.        + + + + V V V %.&.*.*.*.=.@ @ @ @ @ @ @ & & & & & = = ",
"@ @ @ @ @ @ @         ~ ~ ~ ~ -.R R R ;.>.>.>.,.'.).). .L 1 1 !.~.              + R R R {.].].].].=.@ @ @ @ @ @ @ @ @ @ @ $ # # ",
"@ @ @ @ @ @ @         ~ ~ ~ ~ ^.R R R /.(.(.(._. .).).:.1 1 1 !.<.              + R R R [.1 1 1 1 =.@ @ @ @ @ @ @ @ @ @ @ $ # # ",
"@ @ @ @ @ @ @         ~ ~ ~ ~ ^.R R R /.(.(.(._. .).).:.1 1 1 !.<.              + R R R [.1 1 1 1 =.@ @ @ @ @ @ @ @ @ @ @ $ # # ",
"+ + + + + + + +       a . . . }.|.|.|.1.2.3.3.4.5.6.6.7.5.8.8.9.0.% % % [ t t t a.|.|.|.b.8.c.c.c.d.e.. . . . . . % + + +   w w ",
"                      % . . . f.. . e.g.h.i.i.i.i.j.j.g.k.l.l.f.m.. . . * # # # t e.e.. l.l.n.n.n.o.p.. . . . . . %             ",
"                      % . . . . . . . . . . . . . . . . . . . . . . . . * # # # t . . . . . . . . . . . . . . . . %             ",
"                      % . . . . . . . . . . . . . . . . . . . . . . . . * # # # t . . . . . . . . . . . . . . . . %             ",
"              q.r.r.r.s.. . . . * * * . . . . % . . . . . . . . a * * t.u.v.v.v.w.* * * * * * * * * * * * * * * * * w w w w w w ",
"      ~ ~ ~ ~ x.y.y.y.z.# # # @ @ @ @ @ . . . %                 ~ ~ ~ A.B.1 1 1 1 @ @ @ @ @ @ @ @ @ @ @ @ @ @ @ @ @ @ @ @ @ @ @ ",
"      ~ ~ ~ ~ C.1 1 1 D.# # # @ @ @ @ @ . . . %                 ~ ~ ~ ~ E.1 1 1 F.@ @ @ @ @ @ @ @ @ @ @ @ @ @ @ @ @ @ @ @ @ @ @ ",
"      ~ ~ ~ ~ C.1 1 1 D.# # # @ @ @ @ @ . . . %                 ~ ~ ~ ~ E.1 1 1 F.@ @ @ @ @ @ @ @ @ @ @ @ @ @ @ @ @ @ @ @ @ @ @ ",
"      ~ ~ ~ ~ G.H.H.H.I.# # # J.@ @ @ & . . . . + + + + +     K.L.M.M.N.O.].].].P.4 4 4 Q.@ @ @ @ @ @ @ @ @ @ @ @ & @ @ @ & @ @ ",
"      . . . . R.g.g.g.g.. . . . . . . . . . . . . . . . ~ ~ ~ N.S.T.T.V U.V.V.V.W.X.X.@.&.. . . . . . . . . . . . * @ @ @ @     ",
"      . . . . . . . . . . . . . . . . . . . . . . . . . ~ ~ ~ N.Y.R R Z.`. + + +.+1 1 1 ++. . . . . . . . . . . . * @ @ @ @     ",
"      . . . . . . . . . . . . . . . . . . . . . . . . . ~ ~ ~ N.Y.R R Z.`. + + +.+1 1 1 ++. . . . . . . . . . . . * @ @ @ @     ",
"      . . . . . . . . . . . . . . . . . . . . . . . . . ~ ~ ~ N.Y.R R Z.`. + + +.+1 1 1 ++. . . . . . . . . . . . * @ @ @ @     ",
"              @ @ @ @ . . . . ~ ~ ~ ~ ~ @ @ @ @ @ @ @ @ % . . i.@+#+#+$+%+&+&+S *+=+=+=+-+@ @ @ @ @ @ @ @ ;+                    ",
"              @ @ @ @ . . . . ~ ~ ~ ~ ~ @ @ @ @ @ @ @ @ % . . . # # # # = . . . % @ @ @ @ @ @ @ @ @ @ @ @ ;+                    ",
"              @ @ @ @ . . . . ~ ~ ~ ~ ~ @ @ @ @ @ @ @ @ % . . . # # # # = . . . % @ @ @ @ @ @ @ @ @ @ @ @ ;+                    ",
"              @ @ @ @ . . . . ~ ~ ~ ~ ~ @ @ @ @ @ @ @ @ % . . . # # # # = . . . % @ @ @ @ @ @ @ @ @ @ @ @ ;+                    ",
"# # #                         a . . . .                         @ @ @ @ @ @ @ @ $         ~ ~ ~ ~ >+,+'+'+)+!+@ @ @ @ @ @ $ # # ",
"# # #                         % . . . .                         ~+@ @ @ @ @ @ @ $         ~ ~ ~ ~ {+| 1 1 )+5 @ @ @ @ @ @ $ # # ",
"# # #                         % . . . .                         ~+@ @ @ @ @ @ @ $         ~ ~ ~ ~ {+| 1 1 )+5 @ @ @ @ @ @ $ # # ",
"# # #                         % . . . .                         ~+@ @ @ @ @ @ @ $         ~ ~ ~ ~ {+| 1 1 )+5 @ @ @ @ @ @ $ # # ",
"# # #                         % . . . *                         & @ @ ]+^+/+/+(+(+_+_+:+<+[+[+[+[+}+|+1+1+2+3+4+4+5+6+@ @ 7+# # ",
"      . . . . . . . . . . . . . . . . . . . . . . . . . . . . . ~ ~ ~ K 8+R R R 9+0+0+0+a+b+b+b+b+c+d+e+e+f+x.1 1 g+T . . %     ",
"      . . . . . . . . . . . . . . . . . . . . . . . . . . . . . ~ ~ ~ K 8+R R R 9+0+0+0+a+b+b+b+b+c+d+e+e+f+x.1 1 g+T . . %     ",
"      . . . . . . . . . . . . . . . . . . . . . . . . . . . . . ~ ~ ~ K 8+R R R 9+0+0+0+a+b+b+b+b+c+d+e+e+f+x.1 1 g+T . . %     ",
"      . . . . . . . . . . . . h+f.f.f.S . . . . . . . . . . . . ~ ~ ~ A.i+j+j+k+l+m+m+m+n+o+o+o+o+p+q+r+r+s+t+u+u+L v+. . %     ",
"      @ @ @ @ . . . . { ~ ~ ~ w+1 1 1 B                 * . . . . . . . * ~ ~ ~ x+1 1 1 ++. . . .                 + @ @ @ @ @ @ ",
"      @ @ @ @ . . . . { ~ ~ ~ w+1 1 1 B                 * . . . . . . . * ~ ~ ~ x+1 1 1 ++. . . .                 + @ @ @ @ @ @ ",
"      @ @ @ @ . . . . { ~ ~ ~ w+1 1 1 B                 * . . . . . . . * ~ ~ ~ x+1 1 1 ++. . . .                 + @ @ @ @ @ @ ",
"      @ @ @ @ . . . . { ~ ~ ~ y+z+z+z+A+B+              * . . . . . . . * ~ ~ ~ A.z+z+z+C+. . . .                 + @ @ @ @ @ @ ",
"                      % . . . . . . . . . . . . . . . . . . . .                 + @ @ @ @ @ @ @ @         D+. . . . . . . %     ",
"                      % . . . . . . . . . . . . . . . . . . . .                 + @ @ @ @ @ @ @ @         D+. . . . . . . %     ",
"                      % . . . . . . . . . . . . . . . . . . . .                 + @ @ @ @ @ @ @ @         D+. . . . . . . %     ",
"                      % . . . . . . . . . . . . . . . . . . . .                 + @ @ @ @ @ @ @ @         D+. . . . . . . %     ",
". . . . . . . . . . . . . . . = # # # t @ @ @ @ @ @ @ @                                   . . . . . . . . . . . . %             ",
". . . . . . . . . . . . . . . = # # # t @ @ @ @ @ @ @ @                                   . . . . . . . . . . . . %             ",
". . . . . . . . . . . . . . . = # # # t @ @ @ @ @ @ @ @                                   . . . . . . . . . . . . %             "};
